**kern	**kern	**dynam
*part1	*part1	*part1
*staff2	*staff1	*
*I"Piano	*	*
*clefF4	*clefG2	*
*k[b-e-a-d-g-]	*k[b-e-a-d-g-]	*
=1	=1	=1
!	!LO:TX:a:B:t=poco riten.	!
(4C-X' 4A-	(4e-' 4f	.
4C-' 4A-	4e-' 4f	.
4C-' 4A-	4e-' 4f	.
4C-') 4A-	4e-') 4f	.
=	=	=
*	*^	*
1E-^ 1B-	(1g-^ 1b-	8rg	f
.	.	4g- 4b-	.
*^	*	*	*
!	!	!LO:TX:a:B:t=a tempo	!	!
.	4EE-	.	.	.
.	.	.	4e-	.
.	4GG-	.	.	.
.	.	.	4g-	.
.	4BB-	.	.	.
.	.	.	8b-)	.
*v	*v	*	*	*
*	*v	*v	*
=	=	=
(4AAn	8r	<
.	(4an	.
4C	.	.
.	4cc	.
4E-	.	.
.	4ee-	.
4G-	.	.
.	8gg-	[
=	=	=
*	*^	*
1E-^ 1F	1ee-^ 1ff	8rdd	.
.	.	4ee- 4ff	>
*^	*	*	*
.	4C	.	.	.
.	.	.	4cc	.
.	4AAn	.	.	.
.	.	.	4an	.
.	4FF)	.	.	.
.	.	.	8f)	.
*v	*v	*	*	*
*	*v	*v	*
=	=	=
!	!LO:TX:a:t=rallent.	!
(4D-	8r	]
.	(4dd-	.
4C	.	.
.	4cc	.
4BB-	.	.
.	4b-	.
4AA-X	.	.
.	8a-X	.
=	=	=
*	*^	*
1GG-^	1g-^	8rg	.
.	.	4g-	.
*^	*	*	*
.	4EE-	.	.	.
.	.	.	4e-	.
.	4CC	.	.	.
.	.	.	4c	.
.	4BBB-	.	.	.
.	.	.	8B-)	.
*v	*v	*	*	*
*	*v	*v	*
=	=	=
[1AAAn) [1FFn	[1c [1e- [1f	>
=	=	=
2AAA] 2FF]	2c] 2e-] 2f]	.
2r	2r	]
=	=	=
*-	*-	*-
!!!system-decoration: {(s1,s2)}
